X:1
T:Lowton, 87.87
T:Lowton, 87.87
T:Albert Lowe, 1875
T:Public Domain Courtesy of the Cyber Hymnal™
C:Albert Lowe, 1875
Z:Public Domain
Z:Courtesy of the Cyber Hymnal™
%%score ( 1 2 ) ( 3 4 )
L:1/8
Q:1/4=112
M:4/4
K:Eb
V:1 treble 
V:2 treble 
V:3 bass 
V:4 bass 
V:1
 [EG]3 [EG] [EG]2 [EG]2 | [FB]2 [EA]2 [EG]2 [DF]2 | E2 E2 [EF]2 [EG]2 | [EA]2 [DB]2 [EG]4 | %4
 [Ge]3 [Ge] [Gd]2 [DG]2 | G2 [Cc]2 [CB]2 [FA]2 | [DG]2 [CG]2 [FG]2 [EG]2 | [EB]2 A2 [EG]4 |] %8
V:2
 x8 | x8 | E2 E2 x4 | x8 | x8 | G2 x6 | x8 | x2 (ED) x4 |] %8
V:3
 [E,B,]3 [E,B,] [E,B,]2 [E,E]2 | [E,D]2 [E,C]2 [B,,B,]2 [B,,A,]2 | %2
 [C,G,]2 [B,,G,]2 [A,,C]2 [G,,B,]2 | [F,,A,]2 [B,,F,]2 [E,G,]4 | [C,C]3 [C,C] [G,=B,]2 [F,B,]2 | %5
 [E,C]2 [E,G,]2 F,2 [F,C]2 | [G,=B,]2 [E,C]2 [D,B,]2 [C,C]2 | [B,,G,]2 (F,B,) [E,B,]4 |] %8
V:4
 x8 | x8 | x8 | x8 | x8 | x4 F,2 x2 | x8 | x2 B,,2 x4 |] %8

